svgs/sharp-duotone-solid/game-board-simple.svg

<svg xmlns="http://www.w3.org/2000/svg" viewBox="0 0 448 512"><!--! Font Awesome Pro 7.1.0 by @fontawesome - https://fontawesome.com License - https://fontawesome.com/license (Commercial License) Copyright 2025 Fonticons, Inc. --><path opacity=".4" fill="currentColor" d="M0 32l0 448 448 0 0-448-448 0zM64 96l320 0 0 320-320 0 0-320z"/><path fill="currentColor" d="M64 96l0 160 160 0 0-160-160 0zM224 256l0 160 160 0 0-160-160 0z"/></svg>

<svg xmlns="http://www.w3.org/2000/svg" viewBox="0 0 448 512"><!--! Font Awesome Pro 6.7.2 by @fontawesome - https://fontawesome.com License - https://fontawesome.com/license (Commercial License) Copyright 2024 Fonticons, Inc. --><defs><style>.fa-secondary{opacity:.4}</style></defs><path class="fa-secondary" d="M0 32L0 480l448 0 0-448L0 32zM64 96l160 0 160 0 0 160 0 160-160 0L64 416l0-160L64 96z"/><path class="fa-primary" d="M64 96l0 160H224V96H64zM224 256V416H384l0-160H224z"/></svg>
